public/assets/logout.svg

<svg width="24" height="24" viewBox="0 0 24 24" fill="none" xmlns="http://www.w3.org/2000/svg">
<path d="M5.46967 12.5303C5.17678 12.2374 5.17678 11.7626 5.46967 11.4697L7.46967 9.46967C7.76257 9.17678 8.23744 9.17678 8.53033 9.46967C8.82323 9.76256 8.82323 10.2374 8.53033 10.5303L7.81066 11.25L15 11.25C15.4142 11.25 15.75 11.5858 15.75 12C15.75 12.4142 15.4142 12.75 15 12.75L7.81066 12.75L8.53033 13.4697C8.82323 13.7626 8.82323 14.2374 8.53033 14.5303C8.23744 14.8232 7.76257 14.8232 7.46967 14.5303L5.46967 12.5303Z" fill="#EFEFEF"/>
<path fill-rule="evenodd" clip-rule="evenodd" d="M13.9453 1.25H15.0551C16.4227 1.24998 17.525 1.24996 18.392 1.36652C19.2921 1.48754 20.05 1.74643 20.6519 2.34835C21.2538 2.95027 21.5127 3.70814 21.6337 4.60825C21.7503 5.47522 21.7502 6.57754 21.7502 7.94513V16.0549C21.7502 17.4225 21.7503 18.5248 21.6337 19.3918C21.5127 20.2919 21.2538 21.0497 20.6519 21.6517C20.05 22.2536 19.2921 22.5125 18.392 22.6335C17.525 22.75 16.4227 22.75 15.0551 22.75H13.9453C12.5778 22.75 11.4754 22.75 10.6085 22.6335C9.70836 22.5125 8.95048 22.2536 8.34857 21.6517C7.94963 21.2527 7.70068 20.7844 7.54305 20.2498C6.59168 20.2486 5.79906 20.2381 5.15689 20.1518C4.39294 20.0491 3.7306 19.8268 3.20191 19.2981C2.67321 18.7694 2.45093 18.1071 2.34822 17.3431C2.24996 16.6123 2.24998 15.6865 2.25 14.5537V9.44631C2.24998 8.31349 2.24996 7.38774 2.34822 6.65689C2.45093 5.89294 2.67321 5.2306 3.20191 4.7019C3.7306 4.17321 4.39294 3.95093 5.15689 3.84822C5.79906 3.76188 6.59168 3.75142 7.54305 3.75017C7.70068 3.21562 7.94963 2.74729 8.34857 2.34835C8.95048 1.74643 9.70836 1.48754 10.6085 1.36652C11.4754 1.24996 12.5778 1.24998 13.9453 1.25ZM7.25197 17.0042C7.25555 17.6487 7.2662 18.2293 7.30285 18.7491C6.46836 18.7459 5.848 18.7312 5.35676 18.6652C4.75914 18.5848 4.46611 18.441 4.26257 18.2374C4.05903 18.0339 3.91519 17.7409 3.83484 17.1432C3.7516 16.5241 3.75 15.6997 3.75 14.5V9.5C3.75 8.30029 3.7516 7.47595 3.83484 6.85676C3.91519 6.25914 4.05903 5.9661 4.26257 5.76256C4.46611 5.55902 4.75914 5.41519 5.35676 5.33484C5.848 5.2688 6.46836 5.25415 7.30285 5.25091C7.2662 5.77073 7.25555 6.35129 7.25197 6.99583C7.24966 7.41003 7.58357 7.74768 7.99778 7.74999C8.41199 7.7523 8.74964 7.41838 8.75194 7.00418C8.75803 5.91068 8.78643 5.1356 8.89448 4.54735C8.9986 3.98054 9.16577 3.65246 9.40923 3.40901C9.68599 3.13225 10.0746 2.9518 10.8083 2.85315C11.5637 2.75159 12.5648 2.75 14.0002 2.75H15.0002C16.4356 2.75 17.4367 2.75159 18.1921 2.85315C18.9259 2.9518 19.3144 3.13225 19.5912 3.40901C19.868 3.68577 20.0484 4.07435 20.1471 4.80812C20.2486 5.56347 20.2502 6.56459 20.2502 8V16C20.2502 17.4354 20.2486 18.4365 20.1471 19.1919C20.0484 19.9257 19.868 20.3142 19.5912 20.591C19.3144 20.8678 18.9259 21.0482 18.1921 21.1469C17.4367 21.2484 16.4356 21.25 15.0002 21.25H14.0002C12.5648 21.25 11.5637 21.2484 10.8083 21.1469C10.0746 21.0482 9.68599 20.8678 9.40923 20.591C9.16577 20.3475 8.9986 20.0195 8.89448 19.4527C8.78643 18.8644 8.75803 18.0893 8.75194 16.9958C8.74964 16.5816 8.41199 16.2477 7.99778 16.25C7.58357 16.2523 7.24966 16.59 7.25197 17.0042Z" fill="#EFEFEF"/>
</svg>

<svg width="24" height="24" viewBox="0 0 24 24" fill="none" xmlns="http://www.w3.org/2000/svg"><path d="M5.47 12.53a.75.75 0 0 1 0-1.06l2-2a.75.75 0 0 1 1.06 1.06l-.72.72H15a.75.75 0 0 1 0 1.5H7.81l.72.72a.75.75 0 1 1-1.06 1.06l-2-2Z" fill="#EFEFEF"/><path fill-rule="evenodd" clip-rule="evenodd" d="M13.945 1.25h1.11c1.368 0 2.47 0 3.337.117.9.12 1.658.38 2.26.981.602.602.86 1.36.982 2.26.116.867.116 1.97.116 3.337v8.11c0 1.367 0 2.47-.116 3.337-.121.9-.38 1.658-.982 2.26-.602.602-1.36.86-2.26.982-.867.116-1.97.116-3.337.116h-1.11c-1.367 0-2.47 0-3.337-.116-.9-.122-1.658-.38-2.26-.982-.398-.4-.647-.868-.805-1.402-.951-.001-1.744-.012-2.386-.098-.764-.103-1.426-.325-1.955-.854-.529-.529-.751-1.19-.854-1.955-.098-.73-.098-1.656-.098-2.79V9.447c0-1.133 0-2.058.098-2.79.103-.763.325-1.425.854-1.954.529-.529 1.19-.751 1.955-.854.642-.086 1.435-.097 2.386-.098.158-.534.407-1.003.806-1.402.601-.602 1.36-.86 2.26-.981.866-.117 1.969-.117 3.336-.117ZM7.252 17.004c.004.645.014 1.225.05 1.745-.834-.003-1.454-.018-1.945-.084-.598-.08-.89-.224-1.094-.428-.204-.203-.348-.496-.428-1.094-.083-.619-.085-1.443-.085-2.643v-5c0-1.2.002-2.024.085-2.643.08-.598.224-.89.428-1.094.203-.204.496-.348 1.094-.428.491-.066 1.111-.08 1.946-.084-.037.52-.047 1.1-.051 1.745a.75.75 0 0 0 1.5.008c.006-1.093.034-1.868.142-2.457.105-.566.272-.895.515-1.138.277-.277.666-.457 1.4-.556.755-.101 1.756-.103 3.191-.103h1c1.436 0 2.437.002 3.192.103.734.099 1.122.28 1.4.556.276.277.456.665.555 1.4.102.754.103 1.756.103 3.191v8c0 1.435-.001 2.436-.103 3.192-.099.734-.279 1.122-.556 1.399-.277.277-.665.457-1.399.556-.755.101-1.756.103-3.192.103h-1c-1.435 0-2.436-.002-3.192-.103-.733-.099-1.122-.28-1.399-.556-.243-.244-.41-.572-.515-1.138-.108-.589-.136-1.364-.142-2.457a.75.75 0 1 0-1.5.008Z" fill="#EFEFEF"/></svg>
